X: 2137
T: Şah-Merdânın Âvâzı
C: ?
O: Turkey
F: http://compmusic.upf.edu/node/140
N: acemkurdi--nefes--bektasiraksani--sah_merdanin--
N: makam= acemkurdi
N: form= nefes
N: usul= bektasiraksani = 15/8
M: 15/8
L: 1/16
K: C _B   
Q: 1/4=108
%%MIDI tuningsystem comma53
a4 g2a2 a2d'2 a2a2 abag gf{g}fg a2a2 c'2 | \
w:  *  Şah_ ı  mer da *  nın_ a *  *  *  va *  *  *  *  zı    | 
d'4d'2 c'2b2 a3g g2a3ggf egf4g2  | 
w:  *  Tur na  der ler  *  bir  kuş  *  ta *  *  *  dır    | 
a4 g2a2 a2d'2 a2a2 abag gf{g}fg a2a2 c'2 | \
w:  *  Şah_ ı  mer da *  nın_ a *  *  *  va *  *  *  *  zı    | 
d'4d'2 c'2b2 a3g g2a3ggf egf4eg  | 
w:  *  Tur na  der ler  *  bir  kuş  *  ta *  *  *  dır   SAZ  | 
f4 e2f2 g2a3gg2 f3e e3d d2e2 dc | \
w:  *  Â sâ sı  Nil  *  de ni *  zin *  de    | 
c4d2 e2fg e3d c2d3ccB BAf4eg  | 
w:  *  Hır ka sı  *  bir  *  der viş *  te *  *  *  dir   SAZ  | 
f4 e2f2 g2a3gg2 f3e e3d d2e2 dc | \
w:  *  Â sâ sı  Nil  *  de ni *  zin *  de    | 
c4d2 e2fg e3d c2d3ccB BAA4fg  | 
w:  Hır ka sı  *  bir  *  der viş *  te *  *  *  dir   SAZ  | 
a4 g2a2 a2d'2 a2a2 abag gf{g}fg a2a2 c'2 | \
w:  *  Şah_ ı  mer da *  nın_ a *  *  *  va *  *  *  *  zı    | 
d'4d'2 c'2b2 a3g g2a3ggf egf4g2  | 
w:  *  Tur na  der ler  *  bir  kuş  *  ta *  *  *  dır    | 
a4 g2a2 a2d'2 a2a2 abag gf{g}fg a2a2 c'2 | \
w:  *  Şah_ ı  mer da *  nın_ a *  *  *  va *  *  *  *  zı    | 
d'4d'2 c'2b2 a3g g2a3ggf egf4eg  | 
w:  *  Tur na  der ler  *  bir  kuş  *  ta *  *  *  dır   SAZ  | 
f4 e2f2 g2a3gg2 f3e e3d d2e2 dc | \
w:  *  Â sâ sı  Nil  *  de ni *  zin *  de    | 
c4d2 e2fg e3d c2d3ccB BAf4eg  | 
w:  *  Hır ka sı  *  bir  *  der viş *  te *  *  *  dir   SAZ  | 
f4 e2f2 g2a3gg2 f3e e3d d2e2 dc | \
w:  *  Â sâ sı  Nil  *  de ni *  zin *  de    | 
c4d2 e2fg e3d c2d3ccB BAA4z2  | 
w:  Hır ka sı  *  bir  *  der viş *  te *  *  *  *  dir    | 
|


